src/containers/site/SiteRobotsScreen/asset/robots_feature_6.svg

<svg width="78" height="78" viewBox="0 0 78 78" fill="none" xmlns="http://www.w3.org/2000/svg">
<path d="M38.9995 68.3472C55.2076 68.3472 68.3467 55.208 68.3467 39C68.3467 22.792 55.2076 9.65283 38.9995 9.65283C22.7915 9.65283 9.65234 22.792 9.65234 39C9.65234 55.208 22.7915 68.3472 38.9995 68.3472Z" fill="url(#paint0_linear)"/>
<path d="M39 39L64.0848 23.736C58.9296 15.2976 49.6272 9.65283 39 9.65283V39Z" fill="url(#paint1_linear)"/>
<path d="M38.9998 77.448C17.803 77.448 0.551758 60.1968 0.551758 39C0.551758 17.8032 17.803 0.552002 38.9998 0.552002C60.1966 0.552002 77.4478 17.8032 77.4478 39C77.4478 60.1968 60.1966 77.448 38.9998 77.448ZM38.9998 5.16C20.3374 5.16 5.15976 20.3376 5.15976 39C5.15976 57.6624 20.3374 72.84 38.9998 72.84C57.6622 72.84 72.8398 57.6624 72.8398 39C72.8398 20.3376 57.6622 5.16 38.9998 5.16Z" fill="url(#paint2_linear)"/>
<path d="M54.5518 29.4096C53.8606 28.344 52.4494 27.9984 51.3838 28.6896L41.3326 35.0256V14.3184C41.3326 13.0512 40.2958 12.0144 39.0286 12.0144C37.7614 12.0144 36.7246 13.0512 36.7246 14.3184V39C36.7246 40.2672 37.7614 41.304 39.0286 41.304C39.4318 41.304 39.835 41.1888 40.1518 41.016C40.4398 40.9584 40.699 40.872 40.9582 40.6992L53.8318 32.6064C54.8974 31.9152 55.2142 30.504 54.5518 29.4096Z" fill="white"/>
<defs>
<linearGradient id="paint0_linear" x1="9.65234" y1="39" x2="68.3467" y2="39" gradientUnits="userSpaceOnUse">
<stop stop-color="#FFB300"/>
<stop offset="1" stop-color="#FF8E37"/>
</linearGradient>
<linearGradient id="paint1_linear" x1="39" y1="24.3264" x2="64.0848" y2="24.3264" gradientUnits="userSpaceOnUse">
<stop stop-color="#5C8BFC"/>
<stop offset="1" stop-color="#84B0FF"/>
</linearGradient>
<linearGradient id="paint2_linear" x1="0.551758" y1="39" x2="77.4478" y2="39" gradientUnits="userSpaceOnUse">
<stop stop-color="#5C8BFC"/>
<stop offset="1" stop-color="#84B0FF"/>
</linearGradient>
</defs>
</svg>

<svg width="78" height="78" fill="none" xmlns="http://www.w3.org/2000/svg"><path d="M39 68.347c16.208 0 29.347-13.139 29.347-29.347 0-16.208-13.14-29.347-29.347-29.347C22.79 9.653 9.651 22.792 9.651 39c0 16.208 13.14 29.347 29.347 29.347z" fill="url(#paint0_linear)"/><path d="M39 39l25.085-15.264C58.93 15.298 49.627 9.653 39 9.653V39z" fill="url(#paint1_linear)"/><path d="M39 77.448C17.803 77.448.552 60.197.552 39S17.803.552 39 .552 77.448 17.803 77.448 39 60.197 77.448 39 77.448zM39 5.16C20.337 5.16 5.16 20.338 5.16 39c0 18.662 15.177 33.84 33.84 33.84 18.662 0 33.84-15.178 33.84-33.84C72.84 20.338 57.662 5.16 39 5.16z" fill="url(#paint2_linear)"/><path d="M54.552 29.41c-.691-1.066-2.103-1.412-3.168-.72l-10.051 6.336V14.318a2.31 2.31 0 00-2.304-2.304 2.31 2.31 0 00-2.304 2.304V39a2.31 2.31 0 002.304 2.304c.403 0 .806-.115 1.123-.288.288-.058.547-.144.806-.317l12.874-8.093a2.35 2.35 0 00.72-3.196z" fill="#fff"/><defs><linearGradient id="paint0_linear" x1="9.652" y1="39" x2="68.347" y2="39" gradientUnits="userSpaceOnUse"><stop stop-color="#FFB300"/><stop offset="1" stop-color="#FF8E37"/></linearGradient><linearGradient id="paint1_linear" x1="39" y1="24.326" x2="64.085" y2="24.326" gradientUnits="userSpaceOnUse"><stop stop-color="#5C8BFC"/><stop offset="1" stop-color="#84B0FF"/></linearGradient><linearGradient id="paint2_linear" x1=".552" y1="39" x2="77.448" y2="39" gradientUnits="userSpaceOnUse"><stop stop-color="#5C8BFC"/><stop offset="1" stop-color="#84B0FF"/></linearGradient></defs></svg>
